!! 00000] TT[
!!!OTL: Da lian cheng
!!!ARE: Asia, China,ÿNeimeng
!! Ethnic Group: Han
!! MM, ZHONGGUO MINGE XUAN S.195
!!!SCT: C1310
!!!YEM: Copyright 1995, estate of Helmut Schaffrath.
**kern
*ICvox
*Ivox
*M2/4
*k[]
*C:
{8.e
16e
8.e
16gg
=1
8ee
8dd
4cc
=2
4ee
8dd
8cc
=3
2e}
=4
{8.e
16e
8.e
16gg
=5
8.ee
16gg
8ee
8dd
=6
4ee
8dd
8cc
=7
2e}
=8
{8cc
8a
4cc
=9
8e
8g
4e}
=10
{8cc
8cc
8cc
8cc
=11
8e
8g
4e}
=12
{8.cc
16dd
8gg
8ee
=13
2dd}
=14
{4e
4gg
=15
8ee
8dd
4cc
=16
8dd
16dd
16dd
8cc
8a
=17
8g
8a
8cc
8e
=18
2g}
==
!!!AGN: Xiaodiao. Bainian
!! Pinyin-Text der ersten Strophe vorhanden!
!!!ONB: ESAC (Essen Associative Code) Database: CHINA
!!!AMT: simple duple
!!!AIN: vox
!!!EED: Helmut Schaffrath
!!!EEV: 1.0
*-
!!!OTL: Hua he bao
!!!ARE: Asia, China,ÿHubei, Lichuan
!! I, 457
!!!SCT: C1458
!!!YEM: Copyright 1995, estate of Helmut Schaffrath.
**kern
*ICvox
*Ivox
*M2/4
*k[]
*C:
{8dd
8a
8cc
8a
=1
8cc
4dd
8cc
=2
8dd
8cc
16cc
16dd
16cc
16a
=3
8cc
8a
4a}
=4
{8a
8dd
8cc
8dd
=5
8cc
8a
8cc
8dd
=6
8.cc
16a
4a
=7
2g}
=8
{4a
4cc
=9
4a
4cc
=10
8dd
8cc
8a
8cc
=11
2dd}
=12
{8cc
8a
8a
8cc
=13
4a
8.cc
16a
=14
8dd
8a
8cc
8cc
=15
2a}
=16
{8a
8a
8g
8cc
=17
4a
4a
=18
8a
8a
8e
8cc
=19
4a
4a}
=20
{4a
8cc
8cc
=21
4a
4cc
=22
8a
8cc
8dd
8cc
=23
8cc
4.dd}
=24
{16ee
16ee
16cc
[16a
4a]
=25
2cc
=26
8dd
8cc
8a
8a
=27
4a
4cc
=28
4cc
4a
=29
2g}
==
!!!AGN: Xiaodiao, Xiuhebao diao
!!!ONB: ESAC (Essen Associative Code) Database: HUANG
!!!AMT: simple duple
!!!AIN: vox
!!!EED: Helmut Schaffrath
!!!EEV: 1.0
*-
